assets/Ogre/Flat/ogre_flat.svg

<svg width="32" height="32" viewBox="0 0 32 32" fill="none" xmlns="http://www.w3.org/2000/svg">
<path d="M17.09 3.42497C17.5662 3.86359 18.2609 3.97278 18.8501 3.70358C19.6106 3.35532 20.5123 3.64899 20.9227 4.37751C21.2409 4.94226 21.8658 5.2604 22.5097 5.18698C23.3417 5.09098 24.1079 5.64819 24.2735 6.46708C24.4016 7.10147 24.8985 7.59845 25.5329 7.72646C26.3537 7.89212 26.909 8.65829 26.813 9.49035C26.7396 10.1342 27.0577 10.7592 27.6225 11.0773C28.351 11.4877 28.6447 12.3894 28.2964 13.1499C28.0272 13.7391 28.1364 14.4319 28.575 14.91C29.1417 15.5256 29.1417 16.4725 28.575 17.09C28.1364 17.5662 28.0272 18.2609 28.2964 18.8501C28.6447 19.6106 28.351 20.5123 27.6225 20.9227C27.0577 21.2409 26.7396 21.8658 26.813 22.5097C26.909 23.3417 26.3518 24.1079 25.5329 24.2735C24.8985 24.4016 24.4016 24.8985 24.2735 25.5329C24.1079 26.3537 23.3417 26.909 22.5097 26.813C21.8658 26.7396 21.2409 27.0577 20.9227 27.6225C20.5123 28.351 19.6106 28.6447 18.8501 28.2964C18.2609 28.0272 17.5681 28.1364 17.09 28.575C16.4744 29.1417 15.5275 29.1417 14.91 28.575C14.4338 28.1364 13.7391 28.0272 13.1499 28.2964C12.3894 28.6447 11.4877 28.351 11.0773 27.6225C10.7592 27.0577 10.1342 26.7396 9.49035 26.813C8.65829 26.909 7.89212 26.3518 7.72646 25.5329C7.59845 24.8985 7.10147 24.4016 6.46708 24.2735C5.64631 24.1079 5.09098 23.3417 5.18698 22.5097C5.2604 21.8658 4.94226 21.2409 4.37751 20.9227C3.64899 20.5123 3.35532 19.6106 3.70358 18.8501C3.97278 18.2609 3.86359 17.5681 3.42497 17.09C2.85834 16.4744 2.85834 15.5275 3.42497 14.91C3.86359 14.4338 3.97278 13.7391 3.70358 13.1499C3.35532 12.3894 3.64899 11.4877 4.37751 11.0773C4.94226 10.7592 5.2604 10.1342 5.18698 9.49035C5.09098 8.65829 5.64819 7.89212 6.46708 7.72646C7.10147 7.59845 7.59845 7.10147 7.72646 6.46708C7.89212 5.64631 8.65829 5.09098 9.49035 5.18698C10.1342 5.2604 10.7592 4.94226 11.0773 4.37751C11.4877 3.64899 12.3894 3.35532 13.1499 3.70358C13.7391 3.97278 14.4319 3.86359 14.91 3.42497C15.5275 2.85834 16.4744 2.85834 17.09 3.42497Z" fill="#533566"/>
<path d="M7.14536 11.2731L6.88319 12.5839C6.30164 15.4917 6.37304 18.4923 7.09224 21.3691C7.63934 23.5575 9.47542 25.1844 11.7137 25.4642L13.2712 25.6589C15.0833 25.8854 16.9166 25.8854 18.7287 25.6589L20.2862 25.4642C22.5245 25.1844 24.3606 23.5575 24.9077 21.3691C25.6269 18.4923 25.6983 15.4917 25.1168 12.5839L24.8408 11.2041C24.3378 8.68936 22.2923 6.77232 19.7503 6.43338L19.2364 6.36486C17.4192 6.12258 15.5789 6.10837 13.7583 6.32256L12.3278 6.49085C9.747 6.79447 7.65499 8.72493 7.14536 11.2731Z" fill="#CA0B4A"/>
<path d="M14 17C14 15.5 15 13.5 16 13.5C17 13.5 18 15.5 18 17C18 18.5 17.5 19.5 16 19.5C14.5 19.5 14 18.5 14 17Z" fill="#990838"/>
<path d="M21 20H11C11 20 11 25 16 25C21 25 21 20 21 20Z" fill="#6B438B"/>
<path d="M13 21.8394V20H19V21.8394C19 22.0373 18.7434 22.115 18.6336 21.9504L18 21H14L13.3664 21.9504C13.2566 22.115 13 22.0373 13 21.8394Z" fill="white"/>
<path d="M14 23.8041V23.309C14 23.1384 14.1384 23 14.309 23C14.4261 23 14.5331 23.0661 14.5854 23.1708L14.8675 23.7351C14.9466 23.8933 14.9156 24.0844 14.7906 24.2094C14.6301 24.3699 14.3699 24.3699 14.2094 24.2094L14.1385 24.1385C14.0498 24.0498 14 23.9295 14 23.8041Z" fill="white"/>
<path d="M18 23.309V23.8041C18 23.9295 17.9502 24.0498 17.8615 24.1385L17.7906 24.2094C17.6301 24.3699 17.3699 24.3699 17.2094 24.2094C17.0844 24.0844 17.0534 23.8933 17.1325 23.7351L17.4146 23.1708C17.4669 23.0661 17.5739 23 17.691 23C17.8616 23 18 23.1384 18 23.309Z" fill="white"/>
<path d="M7.50003 10.5C7.50003 10.5 9.00003 10.5 10 9.5C11 8.5 11 7 11 7L6.13389 4.10853C5.50458 3.73459 4.76722 4.39136 5.06616 5.05957L7.50003 10.5Z" fill="#FCD53F"/>
<path d="M24.6 10.5C24.6 10.5 23.1 10.5 22.1 9.5C21.1 8.5 21.1 7 21.1 7L25.9661 4.10853C26.5954 3.73459 27.3328 4.39136 27.0338 5.05957L24.6 10.5Z" fill="#FCD53F"/>
<path d="M11 19C12.6569 19 14 17.6569 14 16C14 14.3431 12.6569 13 11 13C9.34315 13 8 14.3431 8 16C8 17.6569 9.34315 19 11 19Z" fill="white"/>
<path d="M21 19C22.6569 19 24 17.6569 24 16C24 14.3431 22.6569 13 21 13C19.3431 13 18 14.3431 18 16C18 17.6569 19.3431 19 21 19Z" fill="white"/>
<path d="M9.75 17C10.1642 17 10.5 16.6642 10.5 16.25C10.5 15.8358 10.1642 15.5 9.75 15.5C9.33579 15.5 9 15.8358 9 16.25C9 16.6642 9.33579 17 9.75 17Z" fill="#533566"/>
<path d="M22.25 17C22.6642 17 23 16.6642 23 16.25C23 15.8358 22.6642 15.5 22.25 15.5C21.8358 15.5 21.5 15.8358 21.5 16.25C21.5 16.6642 21.8358 17 22.25 17Z" fill="#533566"/>
<path d="M10.5856 11.4926C12.0176 11.244 13.1219 11.8612 13.2554 11.9361C13.4963 12.0712 13.801 11.9854 13.9361 11.7446C14.0712 11.5037 13.9855 11.199 13.7446 11.0639C13.5578 10.9591 12.1969 10.1979 10.4145 10.5073C8.65509 10.8128 7.74128 12.0143 7.61211 12.1841L7.60371 12.1951C7.43535 12.414 7.47629 12.7279 7.69517 12.8963C7.91405 13.0647 8.22797 13.0237 8.39634 12.8048L8.40257 12.7966C8.4982 12.6707 9.21168 11.7311 10.5856 11.4926Z" fill="#321B41"/>
<path d="M21.4145 11.4926C19.9825 11.244 18.8782 11.8612 18.7446 11.9361C18.5038 12.0712 18.199 11.9854 18.0639 11.7446C17.9288 11.5037 18.0146 11.199 18.2554 11.0639C18.4422 10.9591 19.8032 10.1979 21.5855 10.5073C23.345 10.8128 24.2588 12.0143 24.3879 12.1841L24.3963 12.1951C24.5647 12.414 24.5238 12.7279 24.3049 12.8963C24.086 13.0647 23.7721 13.0237 23.6037 12.8048L23.5975 12.7966C23.5018 12.6707 22.7884 11.7311 21.4145 11.4926Z" fill="#321B41"/>
</svg>

<svg xmlns="http://www.w3.org/2000/svg" width="32" height="32" fill="none"><path fill="#533566" d="M17.09 3.425c.476.439 1.17.548 1.76.279a1.61 1.61 0 0 1 2.073.674 1.61 1.61 0 0 0 1.587.809 1.611 1.611 0 0 1 1.763 1.28 1.61 1.61 0 0 0 1.26 1.26 1.61 1.61 0 0 1 1.28 1.763 1.61 1.61 0 0 0 .81 1.587 1.61 1.61 0 0 1 .673 2.073c-.269.59-.16 1.282.279 1.76a1.61 1.61 0 0 1 0 2.18 1.611 1.611 0 0 0-.279 1.76 1.61 1.61 0 0 1-.674 2.073 1.61 1.61 0 0 0-.809 1.587 1.611 1.611 0 0 1-1.28 1.763 1.611 1.611 0 0 0-1.26 1.26 1.61 1.61 0 0 1-1.763 1.28 1.61 1.61 0 0 0-1.587.81 1.61 1.61 0 0 1-2.073.673 1.612 1.612 0 0 0-1.76.279 1.61 1.61 0 0 1-2.18 0 1.611 1.611 0 0 0-1.76-.279 1.61 1.61 0 0 1-2.073-.674 1.61 1.61 0 0 0-1.587-.809 1.611 1.611 0 0 1-1.764-1.28 1.61 1.61 0 0 0-1.259-1.26 1.61 1.61 0 0 1-1.28-1.763 1.61 1.61 0 0 0-.81-1.587 1.61 1.61 0 0 1-.673-2.073c.269-.59.16-1.282-.279-1.76a1.61 1.61 0 0 1 0-2.18c.439-.476.548-1.17.279-1.76a1.61 1.61 0 0 1 .674-2.073 1.61 1.61 0 0 0 .809-1.587 1.611 1.611 0 0 1 1.28-1.764 1.61 1.61 0 0 0 1.26-1.259 1.61 1.61 0 0 1 1.763-1.28 1.61 1.61 0 0 0 1.587-.81 1.61 1.61 0 0 1 2.073-.673c.59.269 1.282.16 1.76-.279a1.61 1.61 0 0 1 2.18 0Z"/><path fill="#CA0B4A" d="m7.145 11.273-.262 1.31a20.028 20.028 0 0 0 .21 8.786 5.462 5.462 0 0 0 4.62 4.095l1.558.195c1.812.226 3.646.226 5.458 0l1.557-.195a5.462 5.462 0 0 0 4.622-4.095c.719-2.877.79-5.877.209-8.785l-.276-1.38a6 6 0 0 0-5.09-4.77l-.515-.07a22 22 0 0 0-5.478-.041l-1.43.168a6 6 0 0 0-5.183 4.782Z"/><path fill="#990838" d="M14 17c0-1.5 1-3.5 2-3.5s2 2 2 3.5-.5 2.5-2 2.5-2-1-2-2.5Z"/><path fill="#6B438B" d="M21 20H11s0 5 5 5 5-5 5-5Z"/><path fill="#fff" d="M13 21.84V20h6v1.84a.2.2 0 0 1-.366.11L18 21h-4l-.634.95a.2.2 0 0 1-.366-.11ZM14 23.804v-.495a.31.31 0 0 1 .585-.138l.282.564a.41.41 0 0 1-.658.474l-.07-.07a.473.473 0 0 1-.139-.335ZM18 23.309v.495c0 .126-.05.246-.139.335l-.07.07a.411.411 0 0 1-.659-.474l.283-.564a.309.309 0 0 1 .585.138Z"/><path fill="#FCD53F" d="M7.5 10.5s1.5 0 2.5-1S11 7 11 7L6.134 4.109c-.63-.374-1.367.282-1.068.95L7.5 10.5ZM24.6 10.5s-1.5 0-2.5-1-1-2.5-1-2.5l4.866-2.891c.63-.374 1.367.282 1.068.95L24.6 10.5Z"/><path fill="#fff" d="M11 19a3 3 0 1 0 0-6 3 3 0 0 0 0 6ZM21 19a3 3 0 1 0 0-6 3 3 0 0 0 0 6Z"/><path fill="#533566" d="M9.75 17a.75.75 0 1 0 0-1.5.75.75 0 0 0 0 1.5ZM22.25 17a.75.75 0 1 0 0-1.5.75.75 0 0 0 0 1.5Z"/><path fill="#321B41" d="M10.586 11.493a4.184 4.184 0 0 1 2.67.443.5.5 0 0 0 .489-.872 5.182 5.182 0 0 0-3.33-.557c-1.76.306-2.674 1.507-2.803 1.677l-.008.011a.5.5 0 0 0 .792.61l.007-.008c.095-.126.809-1.066 2.183-1.304ZM21.415 11.493a4.184 4.184 0 0 0-2.67.443.5.5 0 0 1-.49-.872 5.182 5.182 0 0 1 3.33-.557 4.54 4.54 0 0 1 2.803 1.677l.008.011a.5.5 0 1 1-.792.61l-.006-.008c-.096-.126-.81-1.066-2.183-1.304Z"/></svg>
